app/images/meta-shield.svg

<svg fill="none" height="24" viewBox="0 0 20 24" width="20" xmlns="http://www.w3.org/2000/svg"><path clip-rule="evenodd" d="m0 9.71495v-6.14337l10-2.698777 10 2.698777v6.14337c0 6.32925-4.2001 11.68915-10 13.52075-5.80005-1.8316-10-7.1915-10-13.52075zm15.3879 1.01275.2353.1703-.5413.6386.8238 2.5635-.7626 2.6157-2.6693-.7379-.5178.4257-1.0546.7331h-1.80307l-1.05454-.7331-.51783-.4257-2.66925.7379-.75797-2.6157.8191-2.5635-.5414-.6386.23544-.1703-.37664-.3452.28718-.2272-.37664-.2884.25422-.1892-.40011-1.92987.59313-1.79256 3.81802 1.43311h3.17766l3.818-1.43311.5932 1.79256-.3954 1.92987.2495.1892-.3767.2884.2871.2272zm-8.00291 2.4375 1.08566-.5011.45281.9584zm3.38351.4573.4512-.9584 1.0873.5011zm-1.52507 1.2776h1.20047l.208.1661.117 1.1118-.1082-.1106h-1.63393l-.10398.1106.11262-1.1118z" fill="#fff" fill-rule="evenodd"/></svg>

<svg width="20" height="24" viewBox="0 0 20 24" fill="none" xmlns="http://www.w3.org/2000/svg">
<path fill-rule="evenodd" clip-rule="evenodd" d="M0 9.71495V3.57158L10 0.872803L20 3.57158V9.71495C20 16.0442 15.7999 21.4041 10 23.2357C4.19995 21.4041 0 16.0442 0 9.71495ZM15.3879 10.7277L15.6232 10.898L15.0819 11.5366L15.9057 14.1001L15.1431 16.7158L12.4738 15.9779L11.956 16.4036L10.9014 17.1367H9.09833L8.04379 16.4036L7.52596 15.9779L4.85671 16.7158L4.09874 14.1001L4.91784 11.5366L4.37644 10.898L4.61188 10.7277L4.23524 10.3825L4.52242 10.1553L4.14578 9.8669L4.4 9.6777L3.99989 7.74783L4.59302 5.95527L8.41104 7.38838H11.5887L15.4067 5.95527L15.9999 7.74783L15.6045 9.6777L15.854 9.8669L15.4773 10.1553L15.7644 10.3825L15.3879 10.7277ZM7.38499 13.1652L8.47065 12.6641L8.92346 13.6225L7.38499 13.1652ZM10.7685 13.6225L11.2197 12.6641L12.307 13.1652L10.7685 13.6225ZM9.24343 14.9001H10.4439L10.6519 15.0662L10.7689 16.178L10.6607 16.0674H9.02677L8.92279 16.178L9.03541 15.0662L9.24343 14.9001Z" fill="white"/>
</svg>
